X:21109 
T:LASSES OF DUNSE, The 
B:DMI.0355
Z:Nordberg/Black
R:jig
%Q:1/4=160
M:6/8
L:1/8
K:D
g|afd ecA|d2A A2c|BGB AGF|E2E E2g|
afd ecA|d2A A2G|FDF ECE|D3 D2:|
G|AFA BGB|AFA d2A|BGB AGF|E2E e2g|
afa geg|fdf ecA|BdB cec|d3 d2:|

%%%

